static/images/tech-icons/dark/spring.svg

<svg height="24" viewBox="0 0 89 24" width="89" xmlns="http://www.w3.org/2000/svg"><g fill="none"><g fill="#000"><path d="m20.709 1.5678c-.3042.7488-.7254 1.4742-1.2168 2.1294-4.3524-4.5162-11.5362-4.6332-16.029-.2808s-4.6332 11.5362-.2808 16.029c.1404.1638.3042.3042.468.4446l.4212.3744c4.7736 4.0248 11.934 3.4164 15.9588-1.3572 1.5444-1.8252 2.4804-4.1184 2.6442-6.5052.3276-2.8314-.5382-6.4818-1.9656-10.8342zm-15.4206 18.4392c-.3276.4212-.936.468-1.3572.1404s-.468-.936-.1404-1.3572.936-.468 1.3572-.1404c.3978.3276.468.936.1404 1.3572zm15.3504-3.393c-2.7846 3.7206-8.775 2.457-12.5892 2.6442 0 0-.6786.0468-1.3572.1404 0 0 .2574-.117.585-.234 2.691-.936 3.9546-1.1232 5.5926-1.9656 3.0654-1.5678 6.1308-5.0076 6.7392-8.5644-1.17 3.4164-4.7268 6.3648-7.956 7.5582-2.223.819-6.2244 1.6146-6.2244 1.6146l-.1638-.0936c-2.7144-1.3338-2.808-7.2306 2.1528-9.126 2.1762-.8424 4.2354-.3744 6.5988-.936 2.5038-.585 5.4054-2.457 6.5754-4.914 1.3104 3.9546 2.9016 10.0854.0468 13.8762z"/><path d="m29.1096 16.0524c-.3042-.1872-.4914-.5148-.468-.8658 0-.5616.4446-1.0296 1.0062-1.0296h.0234c.1872 0 .3744.0468.5382.1404.936.6552 2.0358 1.0062 3.159 1.053 1.0764 0 1.7082-.468 1.7082-1.1934v-.0468c0-.8658-1.17-1.1466-2.457-1.5444-1.6146-.468-3.4398-1.1232-3.4398-3.2292v-.0468c0-2.0826 1.7316-3.3462 3.9078-3.3462 1.2168.0234 2.3868.3276 3.4632.8892.3744.1872.6084.5382.6084.9594 0 .5616-.468 1.0296-1.0296 1.0296h-.0234c-.1638 0-.3276-.0468-.4914-.117-.7956-.4446-1.6614-.702-2.574-.7488-.9828 0-1.5444.468-1.5444 1.0764v.0468c0 .819 1.1934 1.1466 2.4804 1.5678 1.6146.4914 3.4164 1.2402 3.4164 3.2058v.0468c0 2.3166-1.8018 3.4632-4.0716 3.4632-1.4976-.0234-2.9718-.468-4.212-1.3104z"/><path d="m38.3292 7.2306c-.0234-.6786.5382-1.2402 1.2168-1.2636h.0234c.702 0 1.2636.5616 1.2636 1.2636v.7488c.819-1.1466 1.9656-2.0592 3.744-2.0592 2.574 0 5.1012 2.0358 5.1012 5.7096v.0468c0 3.6504-2.5038 5.7096-5.1012 5.7096-1.8252 0-2.9718-.9126-3.744-1.9422v3.8844c0 .702-.5616 1.2636-1.2636 1.2636-.6786 0-1.2402-.5616-1.2402-1.2402v-.0234zm8.8218 4.446v-.0468c0-2.1294-1.4274-3.51-3.1356-3.51s-3.2058 1.4274-3.2058 3.51v.0468c0 2.106 1.4976 3.51 3.2058 3.51s3.1356-1.3338 3.1356-3.51z"/><path d="m50.661 7.2306c-.0234-.6786.5382-1.2402 1.2168-1.2636h.0234c.702 0 1.2636.5616 1.2636 1.2636v.6084c.117-.936 1.6614-1.872 2.7612-1.872.6318-.0468 1.1934.4212 1.2402 1.053v.1872c0 .6084-.4212 1.1232-1.0062 1.2168-1.8018.3042-3.0186 1.872-3.0186 4.0482v3.627c0 .702-.5616 1.2402-1.2636 1.2402-.6786 0-1.2402-.5382-1.2402-1.2168 0 0 0 0 0-.0234z"/><path d="m58.1724 7.254c-.0234-.6786.5382-1.2402 1.2168-1.2636h.0234c.702 0 1.2636.5616 1.2636 1.2636v8.8686c0 .702-.5616 1.2402-1.2636 1.2402s-1.2402-.5616-1.2402-1.2402z"/><path d="m61.9632 7.254c-.0234-.6786.5382-1.2402 1.2168-1.2636h.0234c.702 0 1.2636.5616 1.2636 1.2636v.5148c.7488-1.17 2.0592-1.8486 3.4398-1.8018 2.4804 0 3.9078 1.6614 3.9078 4.212v5.9202c.0234.6786-.5148 1.2168-1.1934 1.2402-.0234 0-.0234 0-.0468 0-.6786.0234-1.2402-.5382-1.2636-1.2168v-.0234-5.148c0-1.7082-.8424-2.691-2.3634-2.691-1.4508 0-2.4804 1.0296-2.4804 2.7378v5.1246c0 .702-.5616 1.2636-1.2636 1.2636s-1.2636-.5616-1.2636-1.2636z"/><path d="m82.9062 5.9436c-.702 0-1.2636.5616-1.2636 1.2636v.7488c-.819-1.1466-1.9656-2.0592-3.744-2.0592-2.574 0-5.1012 2.0358-5.1012 5.7096v.0468c0 3.6504 2.5038 5.7096 5.1012 5.7096 1.8252 0 2.9718-.9126 3.744-1.9188-.117 1.989-1.3338 3.0186-3.4632 3.0186-1.17 0-2.34-.2808-3.3696-.8658-.1404-.0702-.2808-.0936-.4446-.0936-.585 0-1.053.4446-1.0764 1.0296 0 .4446.2808.8658.702 1.0062 1.3338.6552 2.7846.9828 4.2588.9828 1.989 0 3.5334-.468 4.5162-1.4742.9126-.9126 1.404-2.2932 1.404-4.1418v-7.6752c.0234-.702-.5382-1.2636-1.2402-1.287zm-4.4226 9.243c-1.7316 0-3.1356-1.3572-3.1356-3.5334v-.0468c0-2.1294 1.4274-3.51 3.1356-3.51s3.2058 1.4274 3.2058 3.51v.0468c.0234 2.106-1.4742 3.5334-3.2058 3.5334z"/><path d="m60.6996 2.9484c0 .702-.5616 1.2636-1.2636 1.2636s-1.2636-.5616-1.2636-1.2636.5616-1.2636 1.2636-1.2636c.6786-.0234 1.2402.5382 1.2636 1.2168z"/><path d="m87.048 8.5878c-.702 0-1.287-.585-1.287-1.287s.585-1.287 1.287-1.287 1.287.585 1.287 1.287-.585 1.287-1.287 1.287zm0-2.3868c-.6084 0-1.0998.4914-1.0998 1.0998s.4914 1.0998 1.0998 1.0998 1.0998-.4914 1.0998-1.0998-.468-1.0998-1.0764-1.0998zm.351 1.8252-.3744-.585h-.2574v.585h-.2106v-1.4742h.6084c.2574-.0234.468.1872.4914.4446 0 .2106-.1638.3978-.3744.4446l.3978.585zm-.2574-1.287h-.3744v.5148h.3978c.1404 0 .2574-.117.2574-.2574s-.117-.2574-.2808-.2574z"/><path d="m20.0304 18.9072c1.5444-1.8252 2.4804-4.1184 2.6442-6.5052"/></g><path d="m20.6388 16.614c-2.7846 3.7206-8.775 2.457-12.5892 2.6442 0 0-.6786.0468-1.3572.1404 0 0 .2574-.117.585-.234 2.691-.936 3.9546-1.1232 5.5926-1.9656 3.0654-1.5678 6.1308-5.0076 6.7392-8.5644-1.17 3.4164-4.7268 6.3648-7.956 7.5582-2.223.819-6.2244 1.6146-6.2244 1.6146l-.1638-.0936c-2.7144-1.3338-2.808-7.2306 2.1528-9.126 2.1762-.8424 4.2354-.3744 6.5988-.936 2.5038-.585 5.4054-2.457 6.5754-4.914 1.3104 3.9546 2.9016 10.0854.0468 13.8762z" fill="#fff"/><path d="m5.2884 20.007c-.3276.4212-.936.468-1.3572.1404s-.468-.936-.1404-1.3572.936-.468 1.3572-.1404c.3978.3276.468.936.1404 1.3572z" fill="#fff"/></g></svg>

<?xml version="1.0" encoding="UTF-8"?>
<svg width="89px" height="24px" viewBox="0 0 89 24" version="1.1" xmlns="http://www.w3.org/2000/svg" xmlns:xlink="http://www.w3.org/1999/xlink">
    <title>spring</title>
    <g id="spring" stroke="none" stroke-width="1" fill="none" fill-rule="evenodd">
        <g id="3" fill-rule="nonzero">
            <path d="M20.709,1.5678 C20.4048,2.3166 19.9836,3.042 19.4922,3.6972 C15.1398,-0.819 7.956,-0.936 3.4632,3.4164 C-1.0296,7.7688 -1.17,14.9526 3.1824,19.4454 C3.3228,19.6092 3.4866,19.7496 3.6504,19.89 L4.0716,20.2644 C8.8452,24.2892 16.0056,23.6808 20.0304,18.9072 C21.5748,17.082 22.5108,14.7888 22.6746,12.402 C23.0022,9.5706 22.1364,5.9202 20.709,1.5678 Z M5.2884,20.007 C4.9608,20.4282 4.3524,20.475 3.9312,20.1474 C3.51,19.8198 3.4632,19.2114 3.7908,18.7902 C4.1184,18.369 4.7268,18.3222 5.148,18.6498 C5.5458,18.9774 5.616,19.5858 5.2884,20.007 Z M20.6388,16.614 C17.8542,20.3346 11.8638,19.071 8.0496,19.2582 C8.0496,19.2582 7.371,19.305 6.6924,19.3986 C6.6924,19.3986 6.9498,19.2816 7.2774,19.1646 C9.9684,18.2286 11.232,18.0414 12.87,17.199 C15.9354,15.6312 19.0008,12.1914 19.6092,8.6346 C18.4392,12.051 14.8824,14.9994 11.6532,16.1928 C9.4302,17.0118 5.4288,17.8074 5.4288,17.8074 L5.265,17.7138 C2.5506,16.38 2.457,10.4832 7.4178,8.5878 C9.594,7.7454 11.6532,8.2134 14.0166,7.6518 C16.5204,7.0668 19.422,5.1948 20.592,2.7378 C21.9024,6.6924 23.4936,12.8232 20.6388,16.614 Z" id="Shape" fill="#000000"></path>
            <path d="M29.1096,16.0524 C28.8054,15.8652 28.6182,15.5376 28.6416,15.1866 C28.6416,14.625 29.0862,14.157 29.6478,14.157 C29.6478,14.157 29.6478,14.157 29.6712,14.157 C29.8584,14.157 30.0456,14.2038 30.2094,14.2974 C31.1454,14.9526 32.2452,15.3036 33.3684,15.3504 C34.4448,15.3504 35.0766,14.8824 35.0766,14.157 L35.0766,14.1102 C35.0766,13.2444 33.9066,12.9636 32.6196,12.5658 C31.005,12.0978 29.1798,11.4426 29.1798,9.3366 L29.1798,9.2898 C29.1798,7.2072 30.9114,5.9436 33.0876,5.9436 C34.3044,5.967 35.4744,6.2712 36.5508,6.8328 C36.9252,7.02 37.1592,7.371 37.1592,7.7922 C37.1592,8.3538 36.6912,8.8218 36.1296,8.8218 L36.1062,8.8218 C35.9424,8.8218 35.7786,8.775 35.6148,8.7048 C34.8192,8.2602 33.9534,8.0028 33.0408,7.956 C32.058,7.956 31.4964,8.424 31.4964,9.0324 L31.4964,9.0792 C31.4964,9.8982 32.6898,10.2258 33.9768,10.647 C35.5914,11.1384 37.3932,11.8872 37.3932,13.8528 L37.3932,13.8996 C37.3932,16.2162 35.5914,17.3628 33.3216,17.3628 C31.824,17.3394 30.3498,16.8948 29.1096,16.0524 Z" id="Path" fill="#000000"></path>
            <path d="M38.3292,7.2306 C38.3058,6.552 38.8674,5.9904 39.546,5.967 L39.5694,5.967 C40.2714,5.967 40.833,6.5286 40.833,7.2306 L40.833,7.2306 L40.833,7.9794 C41.652,6.8328 42.7986,5.9202 44.577,5.9202 C47.151,5.9202 49.6782,7.956 49.6782,11.6298 L49.6782,11.6766 C49.6782,15.327 47.1744,17.3862 44.577,17.3862 C42.7518,17.3862 41.6052,16.4736 40.833,15.444 L40.833,19.3284 C40.833,20.0304 40.2714,20.592 39.5694,20.592 L39.5694,20.592 C38.8908,20.592 38.3292,20.0304 38.3292,19.3518 L38.3292,19.3284 L38.3292,7.2306 L38.3292,7.2306 Z M47.151,11.6766 L47.151,11.6298 C47.151,9.5004 45.7236,8.1198 44.0154,8.1198 C42.3072,8.1198 40.8096,9.5472 40.8096,11.6298 L40.8096,11.6766 C40.8096,13.7826 42.3072,15.1866 44.0154,15.1866 C45.7236,15.1866 47.151,13.8528 47.151,11.6766 Z" id="Shape" fill="#000000"></path>
            <path d="M50.661,7.2306 C50.6376,6.552 51.1992,5.9904 51.8778,5.967 L51.9012,5.967 C52.6032,5.967 53.1648,6.5286 53.1648,7.2306 L53.1648,7.2306 L53.1648,7.839 C53.2818,6.903 54.8262,5.967 55.926,5.967 C56.5578,5.9202 57.1194,6.3882 57.1662,7.02 C57.1662,7.0902 57.1662,7.137 57.1662,7.2072 C57.1662,7.8156 56.745,8.3304 56.16,8.424 C54.3582,8.7282 53.1414,10.296 53.1414,12.4722 L53.1414,16.0992 C53.1414,16.8012 52.5798,17.3394 51.8778,17.3394 C51.1992,17.3394 50.6376,16.8012 50.6376,16.1226 C50.6376,16.1226 50.6376,16.1226 50.6376,16.0992 L50.661,7.2306 L50.661,7.2306 Z" id="Path" fill="#000000"></path>
            <path d="M58.1724,7.254 C58.149,6.5754 58.7106,6.0138 59.3892,5.9904 L59.4126,5.9904 C60.1146,5.9904 60.6762,6.552 60.6762,7.254 L60.6762,7.254 L60.6762,16.1226 C60.6762,16.8246 60.1146,17.3628 59.4126,17.3628 C58.7106,17.3628 58.1724,16.8012 58.1724,16.1226 L58.1724,7.254 Z" id="Path" fill="#000000"></path>
            <path d="M61.9632,7.254 C61.9398,6.5754 62.5014,6.0138 63.18,5.9904 L63.2034,5.9904 C63.9054,5.9904 64.467,6.552 64.467,7.254 L64.467,7.254 L64.467,7.7688 C65.2158,6.5988 66.5262,5.9202 67.9068,5.967 C70.3872,5.967 71.8146,7.6284 71.8146,10.179 L71.8146,16.0992 C71.838,16.7778 71.2998,17.316 70.6212,17.3394 C70.5978,17.3394 70.5978,17.3394 70.5744,17.3394 C69.8958,17.3628 69.3342,16.8012 69.3108,16.1226 L69.3108,16.0992 L69.3108,10.9512 C69.3108,9.243 68.4684,8.2602 66.9474,8.2602 C65.4966,8.2602 64.467,9.2898 64.467,10.998 L64.467,16.1226 C64.467,16.8246 63.9054,17.3862 63.2034,17.3862 C62.5014,17.3862 61.9398,16.8246 61.9398,16.1226 L61.9632,7.254 L61.9632,7.254 Z" id="Path" fill="#000000"></path>
            <path d="M82.9062,5.9436 C82.2042,5.9436 81.6426,6.5052 81.6426,7.2072 L81.6426,7.2072 L81.6426,7.956 C80.8236,6.8094 79.677,5.8968 77.8986,5.8968 C75.3246,5.8968 72.7974,7.9326 72.7974,11.6064 L72.7974,11.6532 C72.7974,15.3036 75.3012,17.3628 77.8986,17.3628 C79.7238,17.3628 80.8704,16.4502 81.6426,15.444 C81.5256,17.433 80.3088,18.4626 78.1794,18.4626 C77.0094,18.4626 75.8394,18.1818 74.8098,17.5968 C74.6694,17.5266 74.529,17.5032 74.3652,17.5032 C73.7802,17.5032 73.3122,17.9478 73.2888,18.5328 C73.2888,18.9774 73.5696,19.3986 73.9908,19.539 C75.3246,20.1942 76.7754,20.5218 78.2496,20.5218 C80.2386,20.5218 81.783,20.0538 82.7658,19.0476 C83.6784,18.135 84.1698,16.7544 84.1698,14.9058 L84.1698,7.2306 C84.1932,6.5286 83.6316,5.967 82.9296,5.9436 C82.9296,5.9436 82.9062,5.9436 82.9062,5.9436 Z M78.4836,15.1866 C76.752,15.1866 75.348,13.8294 75.348,11.6532 L75.348,11.6064 C75.348,9.477 76.7754,8.0964 78.4836,8.0964 C80.1918,8.0964 81.6894,9.5238 81.6894,11.6064 L81.6894,11.6532 C81.7128,13.7592 80.2152,15.1866 78.4836,15.1866 Z" id="Shape" fill="#000000"></path>
            <path d="M60.6996,2.9484 C60.6996,3.6504 60.138,4.212 59.436,4.212 C58.734,4.212 58.1724,3.6504 58.1724,2.9484 C58.1724,2.2464 58.734,1.6848 59.436,1.6848 L59.436,1.6848 C60.1146,1.6614 60.6762,2.223 60.6996,2.9016 C60.6996,2.925 60.6996,2.925 60.6996,2.9484 Z" id="Path" fill="#000000"></path>
            <path d="M87.048,8.5878 C86.346,8.5878 85.761,8.0028 85.761,7.3008 C85.761,6.5988 86.346,6.0138 87.048,6.0138 C87.75,6.0138 88.335,6.5988 88.335,7.3008 C88.335,8.0028 87.75,8.5878 87.048,8.5878 Z M87.048,6.201 C86.4396,6.201 85.9482,6.6924 85.9482,7.3008 C85.9482,7.9092 86.4396,8.4006 87.048,8.4006 C87.6564,8.4006 88.1478,7.9092 88.1478,7.3008 C88.1478,6.6924 87.6798,6.201 87.0714,6.201 L87.048,6.201 Z M87.399,8.0262 L87.0246,7.4412 L86.7672,7.4412 L86.7672,8.0262 L86.5566,8.0262 L86.5566,6.552 L87.165,6.552 C87.4224,6.5286 87.633,6.7392 87.6564,6.9966 L87.6564,6.9966 C87.6564,7.2072 87.4926,7.3944 87.282,7.4412 L87.6798,8.0262 L87.399,8.0262 Z M87.1416,6.7392 L86.7672,6.7392 L86.7672,7.254 L87.165,7.254 C87.3054,7.254 87.4224,7.137 87.4224,6.9966 C87.4224,6.8562 87.3054,6.7392 87.1416,6.7392 L87.1416,6.7392 Z" id="Shape" fill="#000000"></path>
            <path d="M20.0304,18.9072 C21.5748,17.082 22.5108,14.7888 22.6746,12.402" id="Path" fill="#000000"></path>
            <path d="M20.6388,16.614 C17.8542,20.3346 11.8638,19.071 8.0496,19.2582 C8.0496,19.2582 7.371,19.305 6.6924,19.3986 C6.6924,19.3986 6.9498,19.2816 7.2774,19.1646 C9.9684,18.2286 11.232,18.0414 12.87,17.199 C15.9354,15.6312 19.0008,12.1914 19.6092,8.6346 C18.4392,12.051 14.8824,14.9994 11.6532,16.1928 C9.4302,17.0118 5.4288,17.8074 5.4288,17.8074 L5.265,17.7138 C2.5506,16.38 2.457,10.4832 7.4178,8.5878 C9.594,7.7454 11.6532,8.2134 14.0166,7.6518 C16.5204,7.0668 19.422,5.1948 20.592,2.7378 C21.9024,6.6924 23.4936,12.8232 20.6388,16.614 Z" id="Path" fill="#FFFFFF"></path>
            <path d="M5.2884,20.007 C4.9608,20.4282 4.3524,20.475 3.9312,20.1474 C3.51,19.8198 3.4632,19.2114 3.7908,18.7902 C4.1184,18.369 4.7268,18.3222 5.148,18.6498 C5.5458,18.9774 5.616,19.5858 5.2884,20.007 Z" id="Path" fill="#FFFFFF"></path>
        </g>
    </g>
</svg>
